;FLAVOR:Marlin
;TIME:9190
;Filament used: 10.2757m
;Layer height: 0.2
;MINX:14.244
;MINY:12.576
;MINZ:0.2
;MAXX:145.844
;MAXY:205.351
;MAXZ:5.2
;TARGET_MACHINE.NAME:Creality Ender-3 V3 SE
;Generated with Cura_SteamEngine 5.8.1
M82 ;absolute extrusion mode
M220 S100 ;Reset Feedrate
M221 S100 ;Reset Flowrate

G28 ;Home

M420 S1; Use saved mesh leveling data

G92 E0 ;Reset Extruder
G1 Z2.0 F3000 ;Move Z Axis up
G1 X-3 Y20 Z0.28 F5000.0 ;Move to start position
M190 S65 ; Set bed temperature and wait
M109 S205.0 ; Set hotend temperature and wait
G1 X-3 Y100.0 Z0.28 F1500.0 E15 ;Draw the first line
G1 X-2 Y100.0 Z0.28 F5000.0 ;Move to side a little
G1 X-2 Y20 Z0.28 F1500.0 E30 ;Draw the second line
G92 E0 ;Reset Extruder
G1 E-1.0000 F1800 ;Retract a bit
G1 Z2.0 F3000 ;Move Z Axis up
G1 E0.0000 F1800 

G92 E0
G92 E0
G1 F2400 E-0.8
;LAYER_COUNT:25
;LAYER:0
M107
G1 F300 Z0.4
G0 F9000 X25.235 Y22.55 Z0.4
;TYPE:SKIRT
G1 F300 Z0.2
G1 F2400 E0
G1 F1800 X27.356 Y20.655 E0.0946
G1 X28.986 Y19.396 E0.1631
G1 X31.637 Y17.652 E0.26864
G1 X33.432 Y16.644 E0.33712
G1 X36.308 Y15.296 E0.44276
G1 X38.412 Y14.496 E0.51762
G1 X40.696 Y13.8 E0.59704
G1 X43.833 Y13.101 E0.70394
G1 X46.122 Y12.773 E0.78085
G1 X48.445 Y12.595 E0.85834
G1 X51.516 Y12.591 E0.96048
G1 X54.237 Y12.803 E1.05125
G1 X56.276 Y13.104 E1.1198
G1 X59.392 Y13.8 E1.226
G1 X61.635 Y14.483 E1.30398
G1 X63.879 Y15.338 E1.38385
G1 X66.623 Y16.631 E1.48474
G1 X68.693 Y17.8 E1.56381
G1 X71.115 Y19.405 E1.66045
G1 X72.743 Y20.663 E1.72888
G1 X74.843 Y22.54 E1.82256
G1 X76.904 Y24.68 E1.92138
G1 X78.221 Y26.265 E1.98992
G1 X80.056 Y28.834 E2.09492
G1 X80.226 Y28.558 E2.1057
G1 X81.859 Y26.277 E2.19901
G1 X83.214 Y24.648 E2.26948
G1 X85.235 Y22.55 E2.36637
G1 X87.356 Y20.655 E2.46097
G1 X88.986 Y19.396 E2.52947
G1 X91.637 Y17.652 E2.63502
G1 X93.432 Y16.644 E2.70349
G1 X96.308 Y15.296 E2.80913
G1 X98.412 Y14.496 E2.884
G1 X100.696 Y13.8 E2.96341
G1 X103.833 Y13.101 E3.07031
G1 X106.122 Y12.773 E3.14722
G1 X108.445 Y12.595 E3.22471
G1 X111.038 Y12.576 E3.31095
G1 X114.237 Y12.803 E3.41762
G1 X116.276 Y13.104 E3.48617
G1 X119.392 Y13.8 E3.59236
G1 X121.635 Y14.483 E3.67035
G1 X123.879 Y15.338 E3.75022
G1 X126.623 Y16.631 E3.85111
G1 X128.693 Y17.8 E3.93018
G1 X131.115 Y19.405 E4.02682
G1 X132.743 Y20.663 E4.09525
G1 X134.843 Y22.54 E4.18893
G1 X136.904 Y24.68 E4.28775
G1 X138.221 Y26.265 E4.35629
G1 X139.953 Y28.69 E4.4554
G1 X141.403 Y31.085 E4.54852
G1 X142.345 Y32.919 E4.6171
G1 X143.587 Y35.844 E4.72279
G1 X144.331 Y38.048 E4.80016
G1 X144.925 Y40.287 E4.8772
G1 X145.507 Y43.422 E4.98326
G1 X145.732 Y45.471 E5.05182
G1 X145.844 Y48.667 E5.15818
G1 X145.731 Y51.258 E5.24444
G1 X145.505 Y53.305 E5.31294
G1 X144.926 Y56.431 E5.41868
G1 X144.343 Y58.627 E5.49425
G1 X143.528 Y61.028 E5.57858
G1 X142.339 Y63.809 E5.67917
G1 X141.397 Y65.642 E5.74772
G1 X139.847 Y68.181 E5.84666
G1 X138.264 Y70.392 E5.9371
G1 X136.835 Y72.11 E6.01143
G1 X134.875 Y74.145 E6.1054
G1 X132.733 Y76.06 E6.20096
G1 X131.103 Y77.319 E6.26947
G1 X129.291 Y78.512 E6.34162
G1 X131.115 Y79.721 E6.41441
G1 X132.743 Y80.979 E6.48284
G1 X134.843 Y82.856 E6.57652
G1 X136.904 Y84.996 E6.67533
G1 X138.221 Y86.58 E6.74385
G1 X139.953 Y89.005 E6.84296
G1 X141.403 Y91.4 E6.93608
G1 X142.345 Y93.234 E7.00466
G1 X143.587 Y96.158 E7.11032
G1 X144.323 Y98.337 E7.18682
G1 X144.925 Y100.605 E7.26486
G1 X145.507 Y103.737 E7.37082
G1 X145.732 Y105.786 E7.43938
G1 X145.844 Y108.983 E7.54578
G1 X145.731 Y111.574 E7.63203
G1 X145.505 Y113.621 E7.70053
G1 X144.926 Y116.748 E7.8063
G1 X144.351 Y118.916 E7.88091
G1 X143.528 Y121.343 E7.96614
G1 X142.339 Y124.124 E8.06674
G1 X141.397 Y125.957 E8.13528
G1 X139.847 Y128.496 E8.23422
G1 X138.264 Y130.708 E8.32469
G1 X136.835 Y132.426 E8.39902
G1 X134.896 Y134.44 E8.492
G1 X132.733 Y136.375 E8.58853
G1 X131.103 Y137.634 E8.65703
G1 X128.851 Y139.117 E8.74672
G1 X131.115 Y140.617 E8.83705
G1 X132.743 Y141.875 E8.90548
G1 X134.843 Y143.752 E8.99916
G1 X136.904 Y145.892 E9.09797
G1 X138.221 Y147.477 E9.16652
G1 X139.953 Y149.902 E9.26563
G1 X141.403 Y152.297 E9.35875
G1 X142.345 Y154.131 E9.42733
G1 X143.587 Y157.056 E9.53302
G1 X144.331 Y159.26 E9.61039
G1 X144.925 Y161.499 E9.68743
G1 X145.507 Y164.634 E9.79349
G1 X145.732 Y166.683 E9.86204
G1 X145.844 Y169.879 E9.96841
G1 X145.731 Y172.47 E10.05467
G1 X145.505 Y174.517 E10.12317
G1 X144.926 Y177.643 E10.22891
G1 X144.343 Y179.839 E10.30447
G1 X143.528 Y182.24 E10.38881
G1 X142.339 Y185.021 E10.4894
G1 X141.397 Y186.854 E10.55795
G1 X139.847 Y189.393 E10.65689
G1 X138.264 Y191.604 E10.74733
G1 X136.835 Y193.322 E10.82166
G1 X134.875 Y195.357 E10.91563
G1 X132.733 Y197.272 E11.01119
G1 X131.103 Y198.531 E11.0797
G1 X128.452 Y200.275 E11.18524
G1 X126.657 Y201.283 E11.25371
G1 X123.781 Y202.631 E11.35935
G1 X121.677 Y203.431 E11.43422
G1 X119.393 Y204.127 E11.51363
G1 X116.261 Y204.826 E11.62037
G1 X114.237 Y205.123 E11.68841
G1 X111.199 Y205.346 E11.78972
G1 X108.422 Y205.331 E11.88209
G1 X105.852 Y205.123 E11.96784
G1 X103.813 Y204.823 E12.03639
G1 X100.697 Y204.127 E12.14258
G1 X98.454 Y203.444 E12.22057
G1 X96.239 Y202.601 E12.2994
G1 X93.627 Y201.379 E12.39531
G1 X91.15 Y199.983 E12.48988
G1 X89.43 Y198.845 E12.55847
G1 X86.946 Y196.917 E12.66306
G1 X85.263 Y195.403 E12.73835
G1 X83.184 Y193.245 E12.83801
G1 X81.867 Y191.661 E12.90653
G1 X80.032 Y189.092 E13.01153
G1 X79.863 Y189.369 E13.02233
G1 X78.264 Y191.604 E13.11373
G1 X76.835 Y193.322 E13.18805
G1 X74.875 Y195.357 E13.28203
G1 X72.733 Y197.271 E13.37757
G1 X71.103 Y198.53 E13.44607
G1 X68.704 Y200.119 E13.54178
G1 X66.501 Y201.36 E13.62587
G1 X63.781 Y202.631 E13.72573
G1 X61.677 Y203.431 E13.8006
G1 X59.393 Y204.127 E13.88001
G1 X56.261 Y204.826 E13.98675
G1 X54.237 Y205.123 E14.05479
G1 X51.035 Y205.351 E14.16156
G1 X48.422 Y205.331 E14.24847
G1 X45.852 Y205.123 E14.33422
G1 X43.813 Y204.823 E14.40277
G1 X40.697 Y204.127 E14.50896
G1 X38.454 Y203.444 E14.58695
G1 X36.239 Y202.601 E14.66578
G1 X33.627 Y201.379 E14.76169
G1 X31.15 Y199.983 E14.85626
G1 X29.43 Y198.844 E14.92487
G1 X27.015 Y196.973 E15.02648
G1 X25.203 Y195.343 E15.10754
G1 X23.184 Y193.245 E15.20439
G1 X21.867 Y191.661 E15.2729
G1 X20.135 Y189.235 E15.37204
G1 X18.685 Y186.841 E15.46514
G1 X17.744 Y185.008 E15.53367
G1 X16.501 Y182.079 E15.63949
G1 X15.758 Y179.878 E15.71676
G1 X15.164 Y177.639 E15.7938
G1 X14.582 Y174.503 E15.89989
G1 X14.357 Y172.455 E15.96841
G1 X14.244 Y169.256 E16.07488
G1 X14.358 Y166.668 E16.16104
G1 X14.584 Y164.622 E16.22951
G1 X15.163 Y161.494 E16.33531
G1 X15.738 Y159.326 E16.40991
G1 X16.561 Y156.899 E16.49515
G1 X17.75 Y154.118 E16.59574
G1 X18.692 Y152.285 E16.66429
G1 X20.242 Y149.746 E16.76323
G1 X21.825 Y147.534 E16.8537
G1 X23.254 Y145.816 E16.92802
G1 X25.193 Y143.802 E17.02101
G1 X27.356 Y141.867 E17.11754
G1 X28.986 Y140.608 E17.18604
G1 X31.224 Y139.135 E17.27515
G1 X29.43 Y137.948 E17.3467
G1 X26.944 Y136.018 E17.45138
G1 X25.241 Y134.485 E17.52759
G1 X23.184 Y132.349 E17.62622
G1 X21.867 Y130.765 E17.69473
G1 X20.151 Y128.363 E17.79292
G1 X18.685 Y125.944 E17.88699
G1 X17.744 Y124.111 E17.95552
G1 X16.501 Y121.182 E18.06135
G1 X15.758 Y118.981 E18.13862
G1 X15.164 Y116.743 E18.21563
G1 X14.582 Y113.607 E18.32172
G1 X14.357 Y111.559 E18.39024
G1 X14.244 Y108.36 E18.49671
G1 X14.358 Y105.772 E18.58287
G1 X14.584 Y103.725 E18.65137
G1 X15.163 Y100.599 E18.75711
G1 X15.746 Y98.403 E18.83267
G1 X16.561 Y96.002 E18.91701
G1 X17.75 Y93.221 E19.0176
G1 X18.692 Y91.388 E19.08615
G1 X20.242 Y88.849 E19.18509
G1 X21.825 Y86.638 E19.27553
G1 X23.254 Y84.92 E19.34986
G1 X25.214 Y82.885 E19.44383
G1 X27.356 Y80.971 E19.53937
G1 X28.986 Y79.712 E19.60787
G1 X30.777 Y78.525 E19.67934
G1 X29.43 Y77.633 E19.73307
G1 X26.946 Y75.705 E19.83766
G1 X25.263 Y74.191 E19.91295
G1 X23.184 Y72.033 E20.01261
G1 X21.867 Y70.449 E20.08113
G1 X20.135 Y68.023 E20.18027
G1 X18.685 Y65.629 E20.27336
G1 X17.744 Y63.796 E20.34189
G1 X16.501 Y60.867 E20.44772
G1 X15.758 Y58.666 E20.52499
G1 X15.164 Y56.427 E20.60203
G1 X14.582 Y53.291 E20.70812
G1 X14.357 Y51.243 E20.77664
G1 X14.244 Y48.044 E20.88311
G1 X14.358 Y45.457 E20.96924
G1 X14.584 Y43.41 E21.03773
G1 X15.163 Y40.282 E21.14354
G1 X15.738 Y38.114 E21.21814
G1 X16.561 Y35.687 E21.30338
G1 X17.75 Y32.906 E21.40397
G1 X18.692 Y31.073 E21.47252
G1 X20.242 Y28.534 E21.57146
G1 X21.859 Y26.277 E21.6638
G1 X23.214 Y24.648 E21.73428
G1 X25.235 Y22.55 E21.83117
G0 F9000 X25.502 Y22.848
G1 F1800 X27.601 Y20.972 E21.9248
G1 X29.231 Y19.713 E21.9933
G1 X31.833 Y18.001 E22.0969
G1 X33.628 Y16.993 E22.16537
G1 X36.45 Y15.67 E22.26903
G1 X38.529 Y14.879 E22.34302
G1 X40.813 Y14.183 E22.42243
G1 X43.89 Y13.497 E22.52728
G1 X46.153 Y13.172 E22.60332
G1 X48.476 Y12.994 E22.68081
G1 X51.485 Y12.99 E22.78089
G1 X54.179 Y13.199 E22.87077
G1 X56.218 Y13.5 E22.93932
G1 X59.275 Y14.183 E23.0435
G1 X61.518 Y14.866 E23.12149
G1 X63.736 Y15.712 E23.20044
G1 X66.426 Y16.979 E23.29934
G1 X68.472 Y18.134 E23.37748
G1 X70.87 Y19.722 E23.47314
G1 X72.498 Y20.98 E23.54157
G1 X74.576 Y22.838 E23.63429
G1 X76.596 Y24.936 E23.73115
G1 X77.913 Y26.521 E23.79969
G1 X79.627 Y28.922 E23.89781
G1 X80.047 Y29.616 E23.92479
G1 X80.551 Y28.791 E23.95695
G1 X82.167 Y26.533 E24.0493
G1 X83.522 Y24.904 E24.11977
G1 X85.502 Y22.848 E24.21471
G1 X87.601 Y20.972 E24.30834
G1 X89.231 Y19.713 E24.37685
G1 X91.833 Y18.001 E24.48044
G1 X93.628 Y16.993 E24.54891
G1 X96.45 Y15.67 E24.65258
G1 X98.529 Y14.879 E24.72656
G1 X100.813 Y14.183 E24.80598
G1 X103.89 Y13.497 E24.91083
G1 X106.153 Y13.172 E24.98687
G1 X108.476 Y12.994 E25.06436
G1 X111.041 Y12.976 E25.14967
G1 X114.179 Y13.199 E25.25431
G1 X116.218 Y13.5 E25.32286
G1 X119.275 Y14.183 E25.42704
G1 X121.518 Y14.866 E25.50503
G1 X123.736 Y15.712 E25.58398
G1 X126.426 Y16.979 E25.68288
G1 X128.472 Y18.134 E25.76102
G1 X130.87 Y19.722 E25.85668
G1 X132.498 Y20.98 E25.92511
G1 X134.576 Y22.838 E26.01783
G1 X136.596 Y24.936 E26.11469
G1 X137.913 Y26.521 E26.18323
G1 X139.627 Y28.922 E26.28135
G1 X141.047 Y31.268 E26.37256
G1 X141.989 Y33.102 E26.44114
G1 X143.208 Y35.972 E26.54485
G1 X143.944 Y38.151 E26.62134
G1 X144.538 Y40.39 E26.69839
G1 X145.109 Y43.466 E26.80244
G1 X145.334 Y45.515 E26.871
G1 X145.444 Y48.65 E26.97534
G1 X145.333 Y51.214 E27.0607
G1 X145.107 Y53.261 E27.1292
G1 X144.539 Y56.328 E27.23294
G1 X143.956 Y58.524 E27.30851
G1 X143.16 Y60.871 E27.39094
G1 X141.983 Y63.626 E27.49058
G1 X141.041 Y65.459 E27.55913
G1 X139.506 Y67.972 E27.65707
G1 X137.956 Y70.136 E27.7456
G1 X136.527 Y71.854 E27.81992
G1 X134.608 Y73.847 E27.91195
G1 X132.488 Y75.743 E28.00654
G1 X130.858 Y77.002 E28.07505
G1 X128.565 Y78.511 E28.16634
G1 X130.87 Y80.038 E28.25831
G1 X132.498 Y81.296 E28.32674
G1 X134.576 Y83.154 E28.41945
G1 X136.596 Y85.252 E28.51631
G1 X137.913 Y86.836 E28.58483
G1 X139.627 Y89.237 E28.68295
G1 X141.047 Y91.583 E28.77416
G1 X141.989 Y93.417 E28.84273
G1 X143.208 Y96.286 E28.94641
G1 X143.936 Y98.44 E29.02203
G1 X144.538 Y100.708 E29.10008
G1 X145.109 Y103.781 E29.20404
G1 X145.334 Y105.83 E29.2726
G1 X145.444 Y108.966 E29.37697
G1 X145.333 Y111.53 E29.46233
G1 X145.107 Y113.577 E29.53082
G1 X144.539 Y116.645 E29.6346
G1 X143.964 Y118.813 E29.7092
G1 X143.149 Y121.214 E29.79353
G1 X141.983 Y123.941 E29.89218
G1 X141.041 Y125.774 E29.96072
G1 X139.506 Y128.287 E30.05866
G1 X137.956 Y130.452 E30.14722
G1 X136.527 Y132.17 E30.22155
G1 X134.608 Y134.162 E30.31354
G1 X132.488 Y136.058 E30.40814
G1 X130.858 Y137.317 E30.47664
G1 X128.095 Y139.135 E30.58665
G1 X128.496 Y139.361 E30.60196
G1 X130.87 Y140.934 E30.69668
G1 X132.498 Y142.192 E30.76511
G1 X134.576 Y144.05 E30.85782
G1 X136.596 Y146.148 E30.95469
G1 X137.913 Y147.733 E31.02323
G1 X139.627 Y150.134 E31.12135
G1 X141.047 Y152.48 E31.21256
G1 X141.989 Y154.314 E31.28113
G1 X143.208 Y157.184 E31.38484
G1 X143.944 Y159.363 E31.46134
G1 X144.538 Y161.602 E31.53838
G1 X145.109 Y164.678 E31.64244
G1 X145.334 Y166.727 E31.711
G1 X145.444 Y169.862 E31.81533
G1 X145.333 Y172.426 E31.90069
G1 X145.107 Y174.473 E31.96919
G1 X144.539 Y177.54 E32.07293
G1 X143.956 Y179.736 E32.1485
G1 X143.16 Y182.083 E32.23093
G1 X141.983 Y184.838 E32.33058
G1 X141.041 Y186.671 E32.39912
G1 X139.506 Y189.184 E32.49706
G1 X137.956 Y191.348 E32.5856
G1 X136.527 Y193.066 E32.65992
G1 X134.608 Y195.059 E32.75194
G1 X132.488 Y196.955 E32.84654
G1 X130.858 Y198.214 E32.91504
G1 X128.256 Y199.926 E33.01864
G1 X126.461 Y200.934 E33.08711
G1 X123.639 Y202.257 E33.19077
G1 X121.56 Y203.048 E33.26475
G1 X119.276 Y203.744 E33.34417
G1 X116.203 Y204.43 E33.44889
G1 X114.179 Y204.727 E33.51693
G1 X111.201 Y204.946 E33.61625
G1 X108.454 Y204.932 E33.70762
G1 X105.91 Y204.727 E33.7925
G1 X103.871 Y204.427 E33.86105
G1 X100.814 Y203.744 E33.96523
G1 X98.571 Y203.061 E34.04322
G1 X96.381 Y202.227 E34.12116
G1 X93.823 Y201.031 E34.21508
G1 X91.371 Y199.649 E34.3087
G1 X89.651 Y198.511 E34.37729
G1 X87.214 Y196.62 E34.47989
G1 X85.531 Y195.106 E34.55518
G1 X83.492 Y192.989 E34.65294
G1 X82.175 Y191.405 E34.72146
G1 X80.461 Y189.004 E34.81957
G1 X80.041 Y188.311 E34.84652
G1 X79.522 Y189.16 E34.87962
G1 X77.956 Y191.348 E34.96911
G1 X76.527 Y193.066 E35.04344
G1 X74.608 Y195.059 E35.13546
G1 X72.488 Y196.954 E35.23003
G1 X70.858 Y198.213 E35.29854
G1 X68.508 Y199.77 E35.3923
G1 X66.305 Y201.011 E35.47639
G1 X63.639 Y202.257 E35.57427
G1 X61.56 Y203.048 E35.64826
G1 X59.276 Y203.744 E35.72767
G1 X56.203 Y204.43 E35.83239
G1 X54.179 Y204.727 E35.90043
G1 X51.038 Y204.951 E36.00517
G1 X48.454 Y204.932 E36.09112
G1 X45.91 Y204.727 E36.176
G1 X43.871 Y204.427 E36.24455
G1 X40.814 Y203.744 E36.34873
G1 X38.571 Y203.061 E36.42672
G1 X36.381 Y202.227 E36.50466
G1 X33.823 Y201.031 E36.59858
G1 X31.371 Y199.649 E36.6922
G1 X29.651 Y198.51 E36.76081
G1 X27.26 Y196.657 E36.86142
G1 X25.491 Y195.066 E36.94055
G1 X23.492 Y192.989 E37.03643
G1 X22.175 Y191.405 E37.10495
G1 X20.477 Y189.028 E37.20211
G1 X19.041 Y186.658 E37.29427
G1 X18.1 Y184.825 E37.36281
G1 X16.88 Y181.951 E37.46665
G1 X16.145 Y179.775 E37.54304
G1 X15.551 Y177.536 E37.62009
G1 X14.98 Y174.459 E37.72418
G1 X14.755 Y172.411 E37.7927
G1 X14.644 Y169.273 E37.89714
G1 X14.756 Y166.712 E37.9824
G1 X14.982 Y164.666 E38.05086
G1 X15.55 Y161.597 E38.15467
G1 X16.125 Y159.429 E38.22927
G1 X16.94 Y157.028 E38.31361
G1 X18.106 Y154.301 E38.41225
G1 X19.048 Y152.468 E38.48079
G1 X20.583 Y149.955 E38.57874
G1 X22.133 Y147.79 E38.6673
G1 X23.562 Y146.072 E38.74162
G1 X25.481 Y144.08 E38.83362
G1 X27.601 Y142.184 E38.92821
G1 X29.231 Y140.925 E38.99672
G1 X31.997 Y139.105 E39.10684
G1 X31.371 Y138.752 E39.13075
G1 X29.651 Y137.614 E39.19934
G1 X27.212 Y135.721 E39.30203
G1 X25.509 Y134.188 E39.37824
G1 X23.492 Y132.093 E39.47497
G1 X22.175 Y130.509 E39.54348
G1 X20.477 Y128.131 E39.64067
G1 X19.041 Y125.761 E39.73283
G1 X18.1 Y123.928 E39.80137
G1 X16.88 Y121.054 E39.90521
G1 X16.145 Y118.878 E39.9816
G1 X15.551 Y116.64 E40.05862
G1 X14.98 Y113.563 E40.1627
G1 X14.755 Y111.515 E40.23123
G1 X14.644 Y108.377 E40.33567
G1 X14.756 Y105.816 E40.42093
G1 X14.982 Y103.769 E40.48942
G1 X15.55 Y100.702 E40.59317
G1 X16.133 Y98.506 E40.66874
G1 X16.929 Y96.159 E40.75117
G1 X18.106 Y93.404 E40.85081
G1 X19.048 Y91.571 E40.91935
G1 X20.583 Y89.058 E41.0173
G1 X22.133 Y86.894 E41.10583
G1 X23.562 Y85.176 E41.18015
G1 X25.481 Y83.183 E41.27217
G1 X27.601 Y81.288 E41.36675
G1 X29.231 Y80.029 E41.43525
G1 X31.502 Y78.524 E41.52587
G1 X29.651 Y77.299 E41.59969
G1 X27.214 Y75.408 E41.70229
G1 X25.531 Y73.894 E41.77758
G1 X23.492 Y71.777 E41.87534
G1 X22.175 Y70.193 E41.94386
G1 X20.477 Y67.816 E42.04102
G1 X19.041 Y65.446 E42.13318
G1 X18.1 Y63.613 E42.20171
G1 X16.88 Y60.739 E42.30556
G1 X16.145 Y58.563 E42.38195
G1 X15.551 Y56.324 E42.45899
G1 X14.98 Y53.247 E42.56308
G1 X14.755 Y51.199 E42.63161
G1 X14.644 Y48.061 E42.73605
G1 X14.756 Y45.501 E42.82127
G1 X14.982 Y43.454 E42.88977
G1 X15.55 Y40.385 E42.99358
G1 X16.125 Y38.217 E43.06818
G1 X16.94 Y35.816 E43.15251
G1 X18.106 Y33.089 E43.25116
G1 X19.048 Y31.256 E43.3197
G1 X20.583 Y28.743 E43.41764
G1 X22.167 Y26.533 E43.50808
