;FLAVOR:Marlin
;TIME:6455
;Filament used: 6.99459m
;Layer height: 0.2
;MINX:14.716
;MINY:19.938
;MINZ:0.2
;MAXX:133.257
;MAXY:206.911
;MAXZ:6.6
;TARGET_MACHINE.NAME:Creality Ender-3 V3 SE
;Generated with Cura_SteamEngine 5.8.1
M82 ;absolute extrusion mode
M220 S100 ;Reset Feedrate
M221 S100 ;Reset Flowrate

G28 ;Home

M420 S1; Use saved mesh leveling data

G92 E0 ;Reset Extruder
G1 Z2.0 F3000 ;Move Z Axis up
G1 X-3 Y20 Z0.28 F5000.0 ;Move to start position
M190 S65 ; Set bed temperature and wait
M109 S205.0 ; Set hotend temperature and wait
G1 X-3 Y100.0 Z0.28 F1500.0 E15 ;Draw the first line
G1 X-2 Y100.0 Z0.28 F5000.0 ;Move to side a little
G1 X-2 Y20 Z0.28 F1500.0 E30 ;Draw the second line
G92 E0 ;Reset Extruder
G1 E-1.0000 F1800 ;Retract a bit
G1 Z2.0 F3000 ;Move Z Axis up
G1 E0.0000 F1800 

G92 E0
G92 E0
G1 F2400 E-0.8
;LAYER_COUNT:32
;LAYER:0
M107
G1 F300 Z0.4
G0 F9000 X24.905 Y28.686 Z0.4
;TYPE:SKIRT
G1 F300 Z0.2
G1 F2400 E0
G1 F1800 X27.027 Y26.857 E0.09318
G1 X29.219 Y25.281 E0.18297
G1 X32.551 Y23.357 E0.31094
G1 X34.881 Y22.305 E0.39597
G1 X38.252 Y21.15 E0.51449
G1 X40.625 Y20.578 E0.59568
G1 X44.346 Y20.049 E0.72068
G1 X47.371 Y19.938 E0.82136
G1 X49.697 Y20.049 E0.89881
G1 X53.275 Y20.557 E1.01901
G1 X56.136 Y21.26 E1.117
G1 X59.031 Y22.268 E1.21896
G1 X61.592 Y23.433 E1.31253
G1 X64.743 Y25.259 E1.43366
G1 X67.108 Y26.964 E1.53063
G1 X69.103 Y28.69 E1.61837
G1 X71.528 Y31.237 E1.73534
G1 X73.358 Y33.59 E1.83449
G1 X73.989 Y34.58 E1.87353
G1 X74.519 Y33.76 E1.90601
G1 X76.793 Y30.877 E2.02814
G1 X78.905 Y28.686 E2.12935
G1 X81.027 Y26.857 E2.22253
G1 X83.219 Y25.281 E2.31232
G1 X86.551 Y23.357 E2.4403
G1 X88.881 Y22.305 E2.52532
G1 X92.252 Y21.15 E2.64384
G1 X94.625 Y20.578 E2.72503
G1 X98.346 Y20.049 E2.85003
G1 X101.371 Y19.938 E2.95071
G1 X103.697 Y20.049 E3.02817
G1 X107.275 Y20.557 E3.14836
G1 X110.136 Y21.26 E3.24635
G1 X113.031 Y22.268 E3.34831
G1 X115.592 Y23.433 E3.44189
G1 X118.743 Y25.259 E3.56302
G1 X121.108 Y26.964 E3.65999
G1 X123.103 Y28.69 E3.74773
G1 X125.528 Y31.237 E3.8647
G1 X127.336 Y33.559 E3.96258
G1 X129.145 Y36.411 E4.07491
G1 X130.258 Y38.581 E4.15602
G1 X131.49 Y41.638 E4.26564
G1 X132.452 Y44.949 E4.38032
G1 X132.901 Y47.274 E4.45908
G1 X133.257 Y51.109 E4.58718
G1 X133.218 Y54.151 E4.68837
G1 X132.956 Y56.772 E4.77598
G1 X132.281 Y60.199 E4.89215
G1 X131.62 Y62.452 E4.97024
G1 X130.214 Y65.962 E5.096
G1 X129.146 Y68.033 E5.17351
G1 X127.067 Y71.259 E5.30115
G1 X125.542 Y73.19 E5.38299
G1 X123.02 Y75.835 E5.50455
G1 X121.169 Y77.435 E5.58592
G1 X118.467 Y79.365 E5.69636
G1 X115.442 Y81.095 E5.81227
G1 X113.112 Y82.147 E5.8973
G1 X111.895 Y82.565 E5.9401
G1 X112.842 Y82.85 E5.97299
G1 X115.023 Y83.731 E6.05122
G1 X118.419 Y85.489 E6.17841
G1 X120.411 Y86.78 E6.25736
G1 X123.361 Y89.124 E6.38268
G1 X125.043 Y90.739 E6.46024
G1 X127.528 Y93.626 E6.58693
G1 X128.896 Y95.562 E6.66578
G1 X130.776 Y98.842 E6.79152
G1 X132.06 Y101.686 E6.89531
G1 X132.42 Y103.814 E6.96709
G1 X132.459 Y104.849 E7.00154
G1 X132.04 Y106.575 E7.06061
G1 X131.488 Y108.052 E7.11306
G1 X130.175 Y109.737 E7.18411
G1 X128.385 Y111.133 E7.25961
G1 X125.84 Y111.983 E7.34885
G1 X125.669 Y112.004 E7.35458
G1 X125.657 Y112.417 E7.36832
G1 X125.657 Y114.437 E7.43551
G1 X127.171 Y114.827 E7.48751
G1 X128.422 Y115.306 E7.53206
G1 X130.027 Y116.604 E7.60072
G1 X131 Y117.599 E7.647
G1 X131.964 Y119.454 E7.71654
G1 X132.495 Y121.669 E7.79229
G1 X132.212 Y124.351 E7.88199
G1 X130.606 Y127.882 E8.01101
G1 X128.897 Y130.844 E8.12475
G1 X127.529 Y132.781 E8.20362
G1 X125.044 Y135.668 E8.33032
G1 X123.361 Y137.284 E8.40792
G1 X120.673 Y139.428 E8.52228
G1 X117.819 Y141.254 E8.63497
G1 X115.025 Y142.677 E8.73926
G1 X112.842 Y143.559 E8.81757
G1 X109.219 Y144.64 E8.94332
G1 X106.89 Y145.096 E9.02225
G1 X103.104 Y145.458 E9.14875
G1 X100.772 Y145.464 E9.22631
G1 X97.156 Y145.133 E9.34708
G1 X93.934 Y144.498 E9.45631
G1 X91.569 Y143.804 E9.53828
G1 X88.244 Y142.475 E9.65738
G1 X85.916 Y141.275 E9.74449
G1 X82.992 Y139.393 E9.86015
G1 X80.465 Y137.384 E9.96752
G1 X78.775 Y135.777 E10.04509
G1 X76.269 Y132.883 E10.17241
G1 X74.873 Y130.921 E10.2525
G1 X74.441 Y130.175 E10.28117
G1 X73.504 Y131.635 E10.33887
G1 X71.207 Y134.55 E10.46231
G1 X69.095 Y136.741 E10.56353
G1 X66.973 Y138.57 E10.65671
G1 X64.781 Y140.146 E10.7465
G1 X61.449 Y142.07 E10.87447
G1 X59.119 Y143.122 E10.9595
G1 X56.815 Y143.913 E11.04052
G1 X57.265 Y144.047 E11.05614
G1 X60.739 Y145.44 E11.18063
G1 X62.81 Y146.508 E11.25813
G1 X66.038 Y148.588 E11.38585
G1 X67.941 Y150.089 E11.46646
G1 X70.612 Y152.64 E11.58931
G1 X72.366 Y154.681 E11.67882
G1 X73.94 Y156.87 E11.76849
G1 X75.861 Y160.197 E11.89627
G1 X76.871 Y162.422 E11.97754
G1 X78.029 Y165.773 E12.09546
G1 X78.736 Y168.783 E12.1983
G1 X79.174 Y171.998 E12.30622
G1 X79.285 Y175.024 E12.40693
G1 X79.174 Y177.352 E12.48445
G1 X78.673 Y180.891 E12.60333
G1 X77.963 Y183.79 E12.7026
G1 X76.955 Y186.685 E12.80456
G1 X75.79 Y189.247 E12.89817
G1 X73.947 Y192.425 E13.02036
G1 X72.328 Y194.673 E13.1125
G1 X70.452 Y196.842 E13.20788
G1 X67.968 Y199.199 E13.32177
G1 X65.895 Y200.828 E13.40946
G1 X62.809 Y202.799 E13.53125
G1 X60.51 Y203.972 E13.61709
G1 X57.699 Y205.105 E13.7179
G1 X54.392 Y206.071 E13.83248
G1 X51.345 Y206.631 E13.93552
G1 X48.111 Y206.911 E14.04349
G1 X45.078 Y206.872 E14.14438
G1 X42.454 Y206.611 E14.23208
G1 X39.024 Y205.936 E14.34835
G1 X36.771 Y205.274 E14.42646
G1 X33.444 Y203.944 E14.54563
G1 X30.559 Y202.435 E14.65391
G1 X28.445 Y201.07 E14.73761
G1 X25.699 Y198.912 E14.85377
G1 X23.763 Y197.066 E14.94274
G1 X21.511 Y194.463 E15.05722
G1 X19.897 Y192.19 E15.14994
G1 X18.203 Y189.242 E15.26303
G1 X17.056 Y186.703 E15.35569
G1 X15.927 Y183.402 E15.47173
G1 X15.355 Y181.029 E15.55292
G1 X14.826 Y177.304 E15.67805
G1 X14.716 Y174.285 E15.77853
G1 X14.826 Y171.958 E15.85602
G1 X15.334 Y168.38 E15.97621
G1 X16.037 Y165.518 E16.07423
G1 X17.045 Y162.623 E16.17619
G1 X18.21 Y160.062 E16.26977
G1 X20.036 Y156.911 E16.3909
G1 X21.741 Y154.546 E16.48787
G1 X23.467 Y152.551 E16.57561
G1 X26.014 Y150.125 E16.6926
G1 X28.336 Y148.319 E16.79044
G1 X31.188 Y146.509 E16.90279
G1 X33.325 Y145.411 E16.9827
G1 X36.417 Y144.164 E17.09359
G1 X37.197 Y143.935 E17.12063
G1 X34.969 Y143.159 E17.1991
G1 X32.441 Y142.011 E17.29144
G1 X29.229 Y140.151 E17.41489
G1 X26.981 Y138.531 E17.50705
G1 X24.812 Y136.655 E17.60243
G1 X22.453 Y134.17 E17.7164
G1 X20.826 Y132.099 E17.80399
G1 X18.854 Y129.014 E17.92577
G1 X17.756 Y126.877 E18.00568
G1 X16.51 Y123.787 E18.1165
G1 X15.548 Y120.478 E18.23111
G1 X15.099 Y118.151 E18.30994
G1 X14.743 Y114.318 E18.43797
G1 X14.782 Y111.276 E18.53916
G1 X15.044 Y108.655 E18.62677
G1 X15.719 Y105.228 E18.74294
G1 X16.38 Y102.975 E18.82103
G1 X17.786 Y99.465 E18.94679
G1 X18.854 Y97.394 E19.02429
G1 X20.933 Y94.168 E19.15194
G1 X22.434 Y92.265 E19.23256
G1 X24.986 Y89.592 E19.35547
G1 X27.027 Y87.838 E19.44498
G1 X29.219 Y86.262 E19.53477
G1 X32.551 Y84.338 E19.66274
G1 X34.881 Y83.286 E19.74777
G1 X36.544 Y82.715 E19.80626
G1 X34.765 Y82.093 E19.86894
G1 X32.543 Y81.083 E19.95012
G1 X29.224 Y79.165 E20.07762
G1 X26.891 Y77.481 E20.17331
G1 X24.896 Y75.755 E20.26105
G1 X22.469 Y73.207 E20.37809
G1 X20.685 Y70.917 E20.47464
G1 X18.854 Y68.033 E20.58827
G1 X17.756 Y65.896 E20.66818
G1 X16.51 Y62.806 E20.77899
G1 X15.548 Y59.496 E20.89364
G1 X15.099 Y57.169 E20.97246
G1 X14.743 Y53.337 E21.10046
G1 X14.782 Y50.295 E21.20165
G1 X15.044 Y47.673 E21.28929
G1 X15.719 Y44.246 E21.40546
G1 X16.38 Y41.994 E21.48352
G1 X17.725 Y38.633 E21.60393
G1 X19.215 Y35.786 E21.71081
G1 X20.496 Y33.792 E21.78963
G1 X22.793 Y30.877 E21.91307
G1 X24.905 Y28.686 E22.01429
G0 F9000 X25.193 Y28.964
G1 F1800 X27.261 Y27.182 E22.10508
G1 X29.453 Y25.606 E22.19488
G1 X32.716 Y23.722 E22.3202
G1 X35.046 Y22.67 E22.40522
G1 X38.346 Y21.539 E22.52125
G1 X40.719 Y20.967 E22.60244
G1 X44.361 Y20.449 E22.72479
G1 X47.352 Y20.338 E22.82434
G1 X49.678 Y20.449 E22.90179
G1 X53.18 Y20.946 E23.01943
G1 X56.004 Y21.638 E23.11614
G1 X58.899 Y22.646 E23.2181
G1 X61.391 Y23.779 E23.30915
G1 X64.542 Y25.605 E23.43027
G1 X66.846 Y27.267 E23.52476
G1 X68.841 Y28.993 E23.6125
G1 X71.212 Y31.483 E23.72686
G1 X73.042 Y33.836 E23.82601
G1 X73.988 Y35.323 E23.88462
G1 X74.833 Y34.008 E23.93661
G1 X77.081 Y31.155 E24.05742
G1 X79.193 Y28.964 E24.15864
G1 X81.261 Y27.182 E24.24943
G1 X83.453 Y25.606 E24.33923
G1 X86.716 Y23.722 E24.46455
G1 X89.046 Y22.67 E24.54957
G1 X92.346 Y21.539 E24.6656
G1 X94.719 Y20.967 E24.74679
G1 X98.361 Y20.449 E24.86914
G1 X101.352 Y20.338 E24.96869
G1 X103.678 Y20.449 E25.04614
G1 X107.18 Y20.946 E25.16378
G1 X110.004 Y21.638 E25.26049
G1 X112.899 Y22.646 E25.36245
G1 X115.391 Y23.779 E25.4535
G1 X118.542 Y25.605 E25.57462
G1 X120.846 Y27.267 E25.66911
G1 X122.841 Y28.993 E25.75685
G1 X125.212 Y31.483 E25.87121
G1 X127.02 Y33.805 E25.96909
G1 X128.789 Y36.594 E26.07894
G1 X129.887 Y38.731 E26.15885
G1 X131.119 Y41.788 E26.26847
G1 X132.059 Y45.025 E26.38058
G1 X132.508 Y47.35 E26.45934
G1 X132.857 Y51.104 E26.58474
G1 X132.82 Y54.111 E26.68476
G1 X132.563 Y56.695 E26.77113
G1 X131.897 Y60.086 E26.88607
G1 X131.236 Y62.339 E26.96416
G1 X129.858 Y65.779 E27.08742
G1 X128.79 Y67.85 E27.16492
G1 X126.753 Y71.011 E27.28999
G1 X125.228 Y72.942 E27.37183
G1 X122.758 Y75.532 E27.49087
G1 X120.907 Y77.132 E27.57224
G1 X118.268 Y79.018 E27.68013
G1 X115.277 Y80.73 E27.79475
G1 X112.947 Y81.782 E27.87978
G1 X110.586 Y82.591 E27.96279
G1 X112.692 Y83.221 E28.0359
G1 X114.873 Y84.102 E28.11414
G1 X118.201 Y85.825 E28.23878
G1 X120.193 Y87.116 E28.31774
G1 X123.084 Y89.413 E28.44055
G1 X124.766 Y91.028 E28.5181
G1 X127.201 Y93.857 E28.64225
G1 X128.569 Y95.793 E28.72109
G1 X130.411 Y99.007 E28.8443
G1 X131.675 Y101.807 E28.94648
G1 X132.02 Y103.829 E29.01471
G1 X132.057 Y104.809 E29.04732
G1 X131.665 Y106.435 E29.10295
G1 X131.135 Y107.854 E29.15334
G1 X129.89 Y109.452 E29.22071
G1 X128.191 Y110.776 E29.29235
G1 X125.713 Y111.604 E29.37925
G1 X125.28 Y111.604 E29.39365
G1 X125.257 Y112.406 E29.42034
G1 X125.257 Y114.205 E29.48017
G1 X125.275 Y114.804 E29.50011
G1 X125.523 Y114.816 E29.50836
G1 X127.028 Y115.201 E29.56003
G1 X128.222 Y115.658 E29.60255
G1 X129.741 Y116.884 E29.66748
G1 X130.672 Y117.836 E29.71177
G1 X131.587 Y119.596 E29.77774
G1 X132.09 Y121.695 E29.84953
G1 X131.821 Y124.245 E29.93482
G1 X130.242 Y127.716 E30.06165
G1 X128.57 Y130.613 E30.1729
G1 X127.202 Y132.55 E30.25177
G1 X124.767 Y135.379 E30.37592
G1 X123.084 Y136.995 E30.45352
G1 X120.424 Y139.115 E30.56665
G1 X117.604 Y140.917 E30.67796
G1 X114.875 Y142.306 E30.77981
G1 X112.692 Y143.188 E30.85812
G1 X109.142 Y144.247 E30.98133
G1 X106.813 Y144.703 E31.06027
G1 X103.103 Y145.058 E31.18423
G1 X100.771 Y145.064 E31.26179
G1 X97.233 Y144.741 E31.37995
G1 X94.047 Y144.114 E31.48795
G1 X91.682 Y143.42 E31.56993
G1 X88.427 Y142.119 E31.68652
G1 X86.099 Y140.919 E31.77363
G1 X83.241 Y139.08 E31.88666
G1 X80.741 Y137.094 E31.99286
G1 X79.051 Y135.487 E32.07042
G1 X76.595 Y132.651 E32.1952
G1 X75.219 Y130.72 E32.27407
G1 X74.458 Y129.407 E32.32454
G1 X73.167 Y131.419 E32.40405
G1 X70.919 Y134.272 E32.52486
G1 X68.807 Y136.463 E32.62608
G1 X66.739 Y138.245 E32.71687
G1 X64.547 Y139.821 E32.80667
G1 X61.284 Y141.705 E32.93199
G1 X58.954 Y142.757 E33.01702
G1 X55.495 Y143.943 E33.13864
G1 X57.116 Y144.418 E33.19482
G1 X60.556 Y145.796 E33.31807
G1 X62.627 Y146.864 E33.39557
G1 X65.79 Y148.902 E33.52072
G1 X67.693 Y150.403 E33.60134
G1 X70.309 Y152.901 E33.72164
G1 X72.041 Y154.915 E33.80999
G1 X73.615 Y157.104 E33.89967
G1 X75.497 Y160.363 E34.02484
G1 X76.493 Y162.553 E34.10485
G1 X77.651 Y165.904 E34.22278
G1 X78.34 Y168.837 E34.32298
G1 X78.774 Y172.013 E34.4296
G1 X78.885 Y175.005 E34.52918
G1 X78.774 Y177.333 E34.6067
G1 X78.277 Y180.835 E34.72434
G1 X77.585 Y183.658 E34.82102
G1 X76.577 Y186.553 E34.92298
G1 X75.444 Y189.046 E35.01405
G1 X73.622 Y192.191 E35.13494
G1 X72.025 Y194.411 E35.2259
G1 X70.149 Y196.58 E35.32128
G1 X67.721 Y198.884 E35.43261
G1 X65.648 Y200.513 E35.5203
G1 X62.627 Y202.443 E35.63953
G1 X60.36 Y203.601 E35.7242
G1 X57.549 Y204.734 E35.825
G1 X54.28 Y205.687 E35.93826
G1 X51.31 Y206.233 E36.0387
G1 X48.116 Y206.511 E36.14533
G1 X45.118 Y206.474 E36.24505
G1 X42.494 Y206.213 E36.33276
G1 X39.137 Y205.552 E36.44655
G1 X36.884 Y204.89 E36.52466
G1 X33.593 Y203.573 E36.64256
G1 X30.776 Y202.099 E36.7483
G1 X28.692 Y200.755 E36.83078
G1 X25.946 Y198.597 E36.94694
G1 X24.066 Y196.804 E37.03335
G1 X21.814 Y194.201 E37.14783
G1 X20.244 Y191.991 E37.23799
G1 X18.568 Y189.077 E37.3498
G1 X17.421 Y186.538 E37.44247
G1 X16.316 Y183.308 E37.55601
G1 X15.744 Y180.935 E37.6372
G1 X15.226 Y177.289 E37.75968
G1 X15.116 Y174.304 E37.85903
G1 X15.226 Y171.977 E37.93651
G1 X15.723 Y168.475 E38.05416
G1 X16.415 Y165.65 E38.15089
G1 X17.423 Y162.755 E38.25285
G1 X18.556 Y160.263 E38.3439
G1 X20.382 Y157.112 E38.46503
G1 X22.044 Y154.808 E38.55952
G1 X23.77 Y152.813 E38.64726
G1 X26.26 Y150.441 E38.76164
G1 X28.582 Y148.635 E38.85948
G1 X31.371 Y146.865 E38.96934
G1 X33.475 Y145.782 E39.04805
G1 X36.567 Y144.535 E39.15894
G1 X38.607 Y143.941 E39.22961
G1 X37.996 Y143.789 E39.25055
G1 X35.101 Y142.781 E39.35251
G1 X32.607 Y141.647 E39.44363
G1 X29.463 Y139.826 E39.56447
G1 X27.243 Y138.228 E39.65545
G1 X25.074 Y136.352 E39.75083
G1 X22.768 Y133.923 E39.86223
G1 X21.141 Y131.852 E39.94982
G1 X19.21 Y128.831 E40.06908
G1 X18.127 Y126.727 E40.14778
G1 X16.881 Y123.637 E40.2586
G1 X15.941 Y120.402 E40.37064
G1 X15.492 Y118.075 E40.44947
G1 X15.143 Y114.323 E40.5748
G1 X15.18 Y111.316 E40.67482
G1 X15.437 Y108.732 E40.76119
G1 X16.103 Y105.341 E40.87613
G1 X16.764 Y103.088 E40.95422
G1 X18.142 Y99.648 E41.07747
G1 X19.21 Y97.577 E41.15498
G1 X21.247 Y94.416 E41.28005
G1 X22.748 Y92.513 E41.36066
G1 X25.247 Y89.895 E41.48104
G1 X27.261 Y88.163 E41.56939
G1 X29.453 Y86.587 E41.65918
G1 X32.716 Y84.703 E41.7845
G1 X35.046 Y83.651 E41.86953
G1 X37.769 Y82.717 E41.96528
G1 X34.931 Y81.729 E42.06523
G1 X32.709 Y80.719 E42.14641
G1 X29.458 Y78.841 E42.27128
G1 X27.153 Y77.178 E42.36582
G1 X25.158 Y75.452 E42.45356
G1 X22.785 Y72.961 E42.56798
G1 X21.001 Y70.671 E42.66453
G1 X19.21 Y67.85 E42.77567
G1 X18.127 Y65.746 E42.85438
G1 X16.881 Y62.656 E42.96519
G1 X15.941 Y59.42 E43.07727
G1 X15.492 Y57.093 E43.1561
G1 X15.143 Y53.342 E43.28139
G1 X15.18 Y50.335 E43.38141
G1 X15.437 Y47.75 E43.46782
G1 X16.103 Y44.359 E43.58276
G1 X16.764 Y42.107 E43.66082
G1 X18.079 Y38.818 E43.77863
G1 X19.552 Y36.002 E43.88433
G1 X20.833 Y34.008 E43.96316
G1 X23.081 Y31.155 E44.08397
G1 X25.193 Y28.964 E44.18518
G0 F9000 X25.481 Y29.242
G1 F1800 X27.495 Y27.507 E44.2736
G1 X29.687 Y25.931 E44.36339
G1 X32.881 Y24.087 E44.48606
G1 X35.211 Y23.035 E44.57109
G1 X38.44 Y21.928 E44.68462
G1 X40.813 Y21.356 E44.76581
G1 X44.376 Y20.849 E44.88551
G1 X47.333 Y20.738 E44.98392
G1 X49.659 Y20.849 E45.06138
G1 X53.124 Y21.342 E45.17778
G1 X55.872 Y22.016 E45.27189
G1 X58.767 Y23.024 E45.37385
G1 X61.191 Y24.125 E45.4624
G1 X64.308 Y25.929 E45.58218
G1 X66.584 Y27.57 E45.67551
G1 X68.579 Y29.296 E45.76325
G1 X70.896 Y31.729 E45.87499
G1 X72.704 Y34.051 E45.97287
G1 X73.986 Y36.067 E46.05233
G1 X75.17 Y34.224 E46.12519
G1 X77.369 Y31.433 E46.24337
G1 X79.481 Y29.242 E46.34459
G1 X81.495 Y27.507 E46.433
G1 X83.687 Y25.931 E46.5228
G1 X86.881 Y24.087 E46.64546
G1 X89.211 Y23.035 E46.73049
G1 X92.44 Y21.928 E46.84403
G1 X94.813 Y21.356 E46.92521
G1 X98.376 Y20.849 E47.04491
G1 X101.333 Y20.738 E47.14333
G1 X103.659 Y20.849 E47.22078
G1 X107.124 Y21.342 E47.33719
G1 X109.872 Y22.016 E47.4313
G1 X112.767 Y23.024 E47.53326
G1 X115.191 Y24.125 E47.62181
G1 X118.308 Y25.929 E47.74159
G1 X120.584 Y27.57 E47.83491
G1 X122.579 Y29.296 E47.92265
G1 X124.896 Y31.729 E48.0344
G1 X126.704 Y34.051 E48.13228
G1 X128.433 Y36.777 E48.23965
G1 X129.516 Y38.881 E48.31835
G1 X130.748 Y41.938 E48.42798
G1 X131.666 Y45.101 E48.53752
G1 X132.115 Y47.426 E48.61628
G1 X132.457 Y51.099 E48.73897
G1 X132.422 Y54.071 E48.83783
G1 X132.165 Y56.655 E48.92419
G1 X131.513 Y59.973 E49.03666
